**kern	**text	**kern	**text	**kern	**text	**kern	**text	**kern	**text
*staff5	*staff5	*staff4	*staff4	*staff3	*staff3	*staff2	*staff2	*staff1	*staff1
*I"Basso	*	*I"Tenore	*	*I"Alto	*	*I"Soprano II	*	*I"Soprano I	*
=1-	=1-	=1-	=1-	=1-	=1-	=1-	=1-	=1-	=1-
*clefF4	*	*clefGv2	*	*clefGv2	*	*clefG2	*	*clefG2	*
*k[f#]	*	*k[f#]	*	*k[f#]	*	*k[f#]	*	*k[f#]	*
*met(c|)	*	*met(c|)	*	*met(c|)	*	*met(c|)	*	*met(c|)	*
*M2/2	*	*M2/2	*	*M2/2	*	*M2/2	*	*M2/2	*
1r	.	[1E	Re-	1r	.	1r	.	1r	.
=2	=2	=2	=2	=2	=2	=2	=2	=2	=2
1r	.	1E]	.	1r	.	1r	.	[1e	Re-
=3	=3	=3	=3	=3	=3	=3	=3	=3	=3
[1E	Re-	[1G	-ces-	[1B	Re-	1r	.	1e]	.
=4	=4	=4	=4	=4	=4	=4	=4	=4	=4
1E]	.	2G/]	.	1B]	.	1r	.	1g	-ces-
.	.	2G/	-sit	.	.	.	.	.	.
=5	=5	=5	=5	=5	=5	=5	=5	=5	=5
1D	-ces-	[1A	pa-	[1d	-ces-	1r	.	[1f#	-sit
=6	=6	=6	=6	=6	=6	=6	=6	=6	=6
1D	-sit	2A/]	.	2d\]	.	1r	.	1f#]	.
.	.	2A/	-stor	2d\	-sit	.	.	.	.
=7	=7	=7	=7	=7	=7	=7	=7	=7	=7
1C	pa-	[1c	no-	[1e	pa-	1r	.	[1g	pa-
=8	=8	=8	=8	=8	=8	=8	=8	=8	=8
1E	-stor	1c]	.	2e\]	.	1r	.	2g/]	.
.	.	.	.	2e\	-stor	.	.	2g/	-stor
=9	=9	=9	=9	=9	=9	=9	=9	=9	=9
1G	no-	1B	-ster,	1d	no-	1r	.	1g	no-
=10	=10	=10	=10	=10	=10	=10	=10	=10	=10
2D\	-ster,	2A/	fons	2d\	-ster,	1r	.	2f#/	-ster,
2G\	fons	[2B\	a-	2d\	fons	.	.	2g/	fons
=11	=11	=11	=11	=11	=11	=11	=11	=11	=11
!!linebreak:original
2G\	a-	2B\]	.	2d\	a-	1r	.	2b\	a-
2F#\	-quae	[2d\	-quae	2d\	-quae	.	.	2a/	-quae
=12	=12	=12	=12	=12	=12	=12	=12	=12	=12
1E	vi-	2d\]	.	1e	vi-	1r	.	1g	vi-
.	.	2c#\	vi-	.	.	.	.	.	.
=13	=13	=13	=13	=13	=13	=13	=13	=13	=13
1D	-vae,	1d	-vae,	1A	-vae,	1r	.	1f#	-vae,
=14	=14	=14	=14	=14	=14	=14	=14	=14	=14
2r	.	2r	.	2r	.	1r	.	2r	.
2E\	ad	2c\	ad	2e\	ad	.	.	2g/	ad
=15	=15	=15	=15	=15	=15	=15	=15	=15	=15
2G\	cu-	2B\	cu-	2d\	cu-	1r	.	2g/	cu-
2E\	-jus	2G/	-jus	2e\	-jus	.	.	2b\	-jus
=16	=16	=16	=16	=16	=16	=16	=16	=16	=16
2.F#\	tran-	2.A/	tran-	2.c\	tran-	1r	.	2.a/	tran-
4F#\	-si-	4A/	-si-	4d\	-si-	.	.	4a/	-si-
=17	=17	=17	=17	=17	=17	=17	=17	=17	=17
1E	-tum	1B	-tum	[1e	-tum	1r	.	[1g#	-tum
=18	=18	=18	=18	=18	=18	=18	=18	=18	=18
[1A	sol	1c	sol	1e]	.	1r	.	2g#/]	.
.	.	.	.	.	.	.	.	2a/	sol
=19	=19	=19	=19	=19	=19	=19	=19	=19	=19
1A]	.	1r	.	[1c	sol	1r	.	[1e	ob-
=20	=20	=20	=20	=20	=20	=20	=20	=20	=20
1AA	.	1A	sol	1c]	.	1r	.	2e/]	.
.	.	.	.	.	.	.	.	2fn/	-scu-
=21	=21	=21	=21	=21	=21	=21	=21	=21	=21
2AA/	ob-	2c\	ob-	2A/	ob-	1r	.	[1e	-ra-
2GG#/	-scu-	2B\	-scu-	2B\	-scu-	.	.	.	.
=22	=22	=22	=22	=22	=22	=22	=22	=22	=22
!!pagebreak:original
2.AA/	-ra-	2.A/	-ra-	2.c\	-ra-	1r	.	2e/]	.
.	.	.	.	.	.	.	.	2e/	-tus
4AA/	-tus	4A/	-tus	4c\	-tus	.	.	.	.
=23	=23	=23	=23	=23	=23	=23	=23	=23	=23
[1E	est:	[1G#	est:	[1B	est:	1r	.	[1e	est:
=24	=24	=24	=24	=24	=24	=24	=24	=24	=24
1E]	.	1G#]	.	1B]	.	1r	.	1e]	.
=25||	=25||	=25||	=25||	=25||	=25||	=25||	=25||	=25||	=25||
[1E	Nam	[1G#	Nam	[1B	Nam	1r	.	[1e	Nam
=26	=26	=26	=26	=26	=26	=26	=26	=26	=26
2E\]	.	2G#/]	.	2B\]	.	1r	.	2e/]	.
2AA/	et	2A/	et	2c#\	et	.	.	2e/	et
=27	=27	=27	=27	=27	=27	=27	=27	=27	=27
1D	il-	1A	il-	1d	il-	1r	.	1f#	il-
=28	=28	=28	=28	=28	=28	=28	=28	=28	=28
2BB/	-le	2B\	-le	2d\	-le	1r	.	2g/	-le
[2C/	ca-	[2G/	ca-	[2c\	ca-	.	.	[2e/	ca-
=29	=29	=29	=29	=29	=29	=29	=29	=29	=29
2C/]	.	2G/]	.	2c\]	.	1r	.	2e/]	.
2D\	-ptus	2F#/	-ptus	2A/	-ptus	.	.	2d/	-ptus
=30	=30	=30	=30	=30	=30	=30	=30	=30	=30
1GG	est,	1G	est,	1B	est,	1r	.	1d	est,
=31	=31	=31	=31	=31	=31	=31	=31	=31	=31
2C/	qui	2G/	qui	2c\	qui	1r	.	2e/	qui
2C/	ca-	2G/	ca-	2c\	ca-	.	.	2e/	ca-
=32	=32	=32	=32	=32	=32	=32	=32	=32	=32
1C	-pti-	1G	-pti-	1c	-pti-	1r	.	1e	-pti-
=33	=33	=33	=33	=33	=33	=33	=33	=33	=33
!!linebreak:original
2E\	-vum	2G/	-vum	2B\	-vum	1r	.	2e/	-vum
2E\	te-	2G/	te-	2B\	te-	.	.	2g/	te-
=34	=34	=34	=34	=34	=34	=34	=34	=34	=34
1D	-ne-	1A	-ne-	1d	-ne-	1r	.	1fn	-ne-
=35	=35	=35	=35	=35	=35	=35	=35	=35	=35
2C/	-bat	1c	-bat	1G	-bat	1r	.	2e/	-bat
[2C/	pri-	.	.	.	.	.	.	[2e/	pri-
=36	=36	=36	=36	=36	=36	=36	=36	=36	=36
2C/]	.	1G	pri-	2c\	pri-	1r	.	2e/]	.
2GG/	-mum	.	.	2B\	-mum	.	.	2d/	-mum
=37	=37	=37	=37	=37	=37	=37	=37	=37	=37
[1AA	ho-	2E/	-mum	2.e\	ho-	1r	.	2.c/	ho-
.	.	[2A/	ho-	.	.	.	.	.	.
.	.	.	.	4d\	.	.	.	4d/	.
=38	=38	=38	=38	=38	=38	=38	=38	=38	=38
2AA/]	.	2A/]	.	2.c\	.	1r	.	2.e/	.
2AA/	-mi-	2A/	-mi-	.	.	.	.	.	.
.	.	.	.	4c\	-mi-	.	.	4e/	-mi-
=39	=39	=39	=39	=39	=39	=39	=39	=39	=39
1E	-nem:	1G#	-nem:	1B	-nem:	1r	.	1e	-nem:
=40	=40	=40	=40	=40	=40	=40	=40	=40	=40
2r	.	2r	.	2r	.	1r	.	2r	.
[2D\	ho-	[2A/	ho-	[2d\	ho-	.	.	[2f#/	ho-
=41	=41	=41	=41	=41	=41	=41	=41	=41	=41
2D\]	.	2A/]	.	2d\]	.	1r	.	2f#/]	.
2D\	-di-	2A/	-di-	2d\	-di-	.	.	2f#/	-di-
=42	=42	=42	=42	=42	=42	=42	=42	=42	=42
2D\	-e	2A/	-e	2d\	-e	1r	.	2f#/	-e
[2G\	por-	[2B\	por-	[2d\	por-	.	.	[2g/	por-
=43	=43	=43	=43	=43	=43	=43	=43	=43	=43
2G\]	.	2B\]	.	2d\]	.	1r	.	2g/]	.
2C/	-tas	2c\	-tas	2e\	-tas	.	.	2g/	-tas
=44	=44	=44	=44	=44	=44	=44	=44	=44	=44
!!linebreak:original
1Fni	mor-	1A	mor-	1c	mor-	1r	.	1fn	mor-
=45	=45	=45	=45	=45	=45	=45	=45	=45	=45
1C	-tis	1G	-tis	1c	-tis	1r	.	1e	-tis
=46	=46	=46	=46	=46	=46	=46	=46	=46	=46
2r	.	2r	.	2r	.	1r	.	2r	.
2G\	et	2B\	et	2d\	et	.	.	2g/	et
=47	=47	=47	=47	=47	=47	=47	=47	=47	=47
2E\	se-	2B\	se-	2e\	se-	1r	.	2g#/	se-
2E\	-ras	2B\	-ras	2e\	-ras	.	.	2g#/	-ras
=48	=48	=48	=48	=48	=48	=48	=48	=48	=48
2.A\	pa-	2.c\	pa-	2.e\	pa-	1r	.	2.a/	pa-
4A\	-ri-	4c\	-ri-	4e\	-ri-	.	.	4a/	-ri-
=49	=49	=49	=49	=49	=49	=49	=49	=49	=49
1E	-ter	[1B	-ter	[1e	-ter	1r	.	2.g/	-ter
.	.	.	.	.	.	.	.	8f#/L	.
.	.	.	.	.	.	.	.	8g/J	.
=50	=50	=50	=50	=50	=50	=50	=50	=50	=50
1A	Sal-	2B\]	.	1e]	.	1r	.	1a	.
.	.	2c\	Sal-	.	.	.	.	.	.
=51	=51	=51	=51	=51	=51	=51	=51	=51	=51
2G\	-va-	2B\	-va-	2r	.	1r	.	1r	.
2E\	-tor	2G/	-tor	2e\	Sal-	.	.	.	.
=52	=52	=52	=52	=52	=52	=52	=52	=52	=52
1G	no-	2B\	no-	2d\	-va-	1r	.	1g	Sal-
.	.	2E/	-ster	2B\	-tor	.	.	.	.
=53	=53	=53	=53	=53	=53	=53	=53	=53	=53
2D\	-ster	2A/	dis-	2d\	no-	1r	.	2f#/	-va-
2D\	dis-	[2F#/	-ru-	[2A/	-ster	.	.	2d/	-tor
=54	=54	=54	=54	=54	=54	=54	=54	=54	=54
1D	-ru-	4F#/]	.	2A/]	.	1r	.	1f#	no-
.	.	4G/	.	.	.	.	.	.	.
.	.	[2A/	.	2d\	dis-	.	.	.	.
=55	=55	=55	=55	=55	=55	=55	=55	=55	=55
!!pagebreak:original
2AA/	.	2A/]	.	2.c\	.	1r	.	2e/	-ster
2AA/	-pit	2E/	-pit	.	.	.	.	2a/	dis-
.	.	.	.	4d\	.	.	.	.	.
=56	=56	=56	=56	=56	=56	=56	=56	=56	=56
2.C/	dis-	2E/	dis-	2.e\	.	1r	.	2.g/	-ru-
.	.	[2G/	-ru-	.	.	.	.	.	.
4D\	.	.	.	8d\L	.	.	.	4f#/	.
.	.	.	.	8c\J	.	.	.	.	.
=57	=57	=57	=57	=57	=57	=57	=57	=57	=57
[1E	-ru-	4G/]	.	[1B	-ru-	1r	.	4g/	.
.	.	4A/	.	.	.	.	.	4f#/	.
.	.	4B\	.	.	.	.	.	4e/	.
.	.	4A/	.	.	.	.	.	4d/	.
=58	=58	=58	=58	=58	=58	=58	=58	=58	=58
1E]	.	4G/	.	1B]	.	1r	.	1e	.
.	.	4F#/	.	.	.	.	.	.	.
.	.	2G/	.	.	.	.	.	.	.
=59	=59	=59	=59	=59	=59	=59	=59	=59	=59
[1BB	-pit.	[1F#	-pit.	[1B	-pit.	1r	.	[1d#i	-pit.
=60	=60	=60	=60	=60	=60	=60	=60	=60	=60
1BB]	.	1F#]	.	1B]	.	1r	.	1d#]	.
=61||	=61||	=61||	=61||	=61||	=61||	=61||	=61||	=61||	=61||
1r	.	1r	.	1B	De-	1r	.	1r	.
=62	=62	=62	=62	=62	=62	=62	=62	=62	=62
1r	.	1r	.	1c	-stru-	1e	De-	1r	.
=63	=63	=63	=63	=63	=63	=63	=63	=63	=63
1r	.	1r	.	2B\	-xit	1g	-stru-	1r	.
.	.	.	.	[2e\	qui-	.	.	.	.
=64	=64	=64	=64	=64	=64	=64	=64	=64	=64
1r	.	1r	.	2e\]	.	2f#/	-xit	1r	.
.	.	.	.	2d\	-dem	[2b\	qui-	.	.
=65	=65	=65	=65	=65	=65	=65	=65	=65	=65
!!linebreak:original
1r	.	1r	.	1c	clau-	2b\]	.	1r	.
.	.	.	.	.	.	2a/	-dem	.	.
=66	=66	=66	=66	=66	=66	=66	=66	=66	=66
1r	.	1r	.	2B\	-stra	1g	clau-	1r	.
.	.	.	.	2e\	in-	.	.	.	.
=67	=67	=67	=67	=67	=67	=67	=67	=67	=67
1r	.	1r	.	2.d\	-fer-	2f#/	-stra	1r	.
.	.	.	.	.	.	[2a/	in-	.	.
.	.	.	.	4A/	.	.	.	.	.
=68	=68	=68	=68	=68	=68	=68	=68	=68	=68
1r	.	1r	.	2.c\	.	2a/]	.	1r	.
.	.	.	.	.	.	[2g/	-fer-	.	.
.	.	.	.	4B\	.	.	.	.	.
=69	=69	=69	=69	=69	=69	=69	=69	=69	=69
1r	.	1r	.	1A	.	2g/]	.	1r	.
.	.	.	.	.	.	2f#/	.	.	.
=70	=70	=70	=70	=70	=70	=70	=70	=70	=70
1r	.	1r	.	1G	-ni,	1g	-ni,	1r	.
=71	=71	=71	=71	=71	=71	=71	=71	=71	=71
1r	.	1r	.	2r	.	2r	.	2r	.
.	.	.	.	[2e\	et	[2g/	et	[2b\	et
=72	=72	=72	=72	=72	=72	=72	=72	=72	=72
1r	.	1r	.	2e\]	.	2g/]	.	2b\]	.
.	.	.	.	2d#\	sub-	2f#/	sub-	2b\	sub-
=73	=73	=73	=73	=73	=73	=73	=73	=73	=73
1r	.	1r	.	1e	-ver-	1g	-ver-	1b	-ver-
=74	=74	=74	=74	=74	=74	=74	=74	=74	=74
1r	.	1r	.	2e\	-tit	2g/	-tit	2b\	-tit
.	.	.	.	2A/	po-	2e/	po-	2cc\	po-
=75	=75	=75	=75	=75	=75	=75	=75	=75	=75
1r	.	1r	.	2.d\	-ten-	2.f#/	-ten-	2.a/	-ten-
.	.	.	.	4d\	-ti-	4f#/	-ti-	4a/	-ti-
=76	=76	=76	=76	=76	=76	=76	=76	=76	=76
!!linebreak:original
1r	.	1r	.	2d\	-as	2f#/	-as	2a/	-as
.	.	.	.	2G/	dia-	2g/	dia-	2b\	dia-
=77	=77	=77	=77	=77	=77	=77	=77	=77	=77
1r	.	1r	.	[1A	.	[1e	.	[1cc	.
=78	=78	=78	=78	=78	=78	=78	=78	=78	=78
1r	.	1r	.	2A/]	.	2e/]	.	2cc\]	.
.	.	.	.	2A/	-bo-	[2a/	-bo-	2cc\	-bo-
=79	=79	=79	=79	=79	=79	=79	=79	=79	=79
1r	.	1r	.	[1e	-li.	2a/]	.	[1b	-li.
.	.	.	.	.	.	2g#/	.	.	.
=80	=80	=80	=80	=80	=80	=80	=80	=80	=80
1r	.	1r	.	1e]	.	1g#	-li.	1b]	.
=81||	=81||	=81||	=81||	=81||	=81||	=81||	=81||	=81||	=81||
[1E	Nam	[1G#	Nam	[1B	Nam	[1e	Nam	[1e	Nam
=82	=82	=82	=82	=82	=82	=82	=82	=82	=82
2E\]	.	2G#/]	.	2B\]	.	2e/]	.	2e/]	.
2AA/	et	2A/	et	2c#\	et	2e/	et	2e/	et
=83	=83	=83	=83	=83	=83	=83	=83	=83	=83
1D	il-	1A	il-	1d	il-	1f#	il-	1f#	il-
=84	=84	=84	=84	=84	=84	=84	=84	=84	=84
2BB/	-le	2B\	-le	2d\	-le	2g/	-le	2g/	-le
[2C/	ca-	[2G/	ca-	[2c\	ca-	[2e/	ca-	[2e/	ca-
=85	=85	=85	=85	=85	=85	=85	=85	=85	=85
2C/]	.	2G/]	.	2c\]	.	2e/]	.	2e/]	.
2D\	-ptus	2F#/	-ptus	2A/	-ptus	2d/	-ptus	2d/	-ptus
=86	=86	=86	=86	=86	=86	=86	=86	=86	=86
1GG	est,	1G	est,	1B	est,	1d	est,	1d	est,
=87	=87	=87	=87	=87	=87	=87	=87	=87	=87
!!pagebreak:original
2C/	qui	2G/	qui	2c\	qui	2e/	qui	2e/	qui
2C/	ca-	2G/	ca-	2c\	ca-	2e/	ca-	2e/	ca-
=88	=88	=88	=88	=88	=88	=88	=88	=88	=88
1C	-pti-	1G	-pti-	1c	-pti-	1e	-pti-	1e	-pti-
=89	=89	=89	=89	=89	=89	=89	=89	=89	=89
2E\	-vum	2G/	-vum	2B\	-vum	2e/	-vum	2e/	-vum
2E\	te-	2G/	te-	2B\	te-	2g/	te-	2g/	te-
=90	=90	=90	=90	=90	=90	=90	=90	=90	=90
1D	-ne-	1A	-ne-	1d	-ne-	1fn	-ne-	1fn	-ne-
=91	=91	=91	=91	=91	=91	=91	=91	=91	=91
2C/	-bat	1c	-bat	1G	-bat	2e/	-bat	2e/	-bat
[2C/	pri-	.	.	.	.	[2e/	pri-	[2e/	pri-
=92	=92	=92	=92	=92	=92	=92	=92	=92	=92
2C/]	.	1G	pri-	2c\	pri-	2e/]	.	2e/]	.
2GG/	-mum	.	.	2B\	-mum	2d/	-mum	2d/	-mum
=93	=93	=93	=93	=93	=93	=93	=93	=93	=93
[1AA	ho-	2E/	-mum	2.e\	ho-	2.c/	ho-	2.c/	ho-
.	.	[2A/	ho-	.	.	.	.	.	.
.	.	.	.	4d\	.	4d/	.	4d/	.
=94	=94	=94	=94	=94	=94	=94	=94	=94	=94
2AA/]	.	2A/]	.	2.c\	.	2.e/	.	2.e/	.
2AA/	-mi-	2A/	-mi-	.	.	.	.	.	.
.	.	.	.	4c\	-mi-	4e/	-mi-	4f#/	-mi-
=95	=95	=95	=95	=95	=95	=95	=95	=95	=95
1E	-nem:	1G#	-nem:	1B	-nem:	1e	-nem:	1e	-nem:
=96	=96	=96	=96	=96	=96	=96	=96	=96	=96
2r	.	2r	.	2r	.	2r	.	2r	.
[2D\	ho-	[2A/	ho-	[2d\	ho-	[2f#/	ho-	[2f#/	ho-
=97	=97	=97	=97	=97	=97	=97	=97	=97	=97
2D\]	.	2A/]	.	2d\]	.	2f#/]	.	2f#/]	.
2D\	-di-	2A/	-di-	2d\	-di-	2f#/	-di-	2f#/	-di-
=98	=98	=98	=98	=98	=98	=98	=98	=98	=98
!!linebreak:original
2D\	-e	2A/	-e	2d\	-e	2f#/	-e	2f#/	-e
[2G\	por-	[2B\	por-	[2d\	por-	[2g/	por-	[2g/	por-
=99	=99	=99	=99	=99	=99	=99	=99	=99	=99
2G\]	.	2B\]	.	2d\]	.	2g/]	.	2g/]	.
2C/	-tas	2c\	-tas	2e\	-tas	2g/	-tas	2g/	-tas
=100	=100	=100	=100	=100	=100	=100	=100	=100	=100
1Fni	mor-	1A	mor-	1c	mor-	1fn	mor-	1fn	mor-
=101	=101	=101	=101	=101	=101	=101	=101	=101	=101
1C	-tis	1G	-tis	1c	-tis	1e	-tis	1e	-tis
=102	=102	=102	=102	=102	=102	=102	=102	=102	=102
2r	.	2r	.	2r	.	2r	.	2r	.
2G\	et	2B\	et	2d\	et	2g/	et	2g/	et
=103	=103	=103	=103	=103	=103	=103	=103	=103	=103
2E\	se-	2B\	se-	2e\	se-	2g#/	se-	2g#/	se-
2E\	-ras	2B\	-ras	2e\	-ras	2g#/	-ras	2g#/	-ras
=104	=104	=104	=104	=104	=104	=104	=104	=104	=104
2.A\	pa-	2.c\	pa-	2.e\	pa-	2.a/	pa-	2.a/	pa-
4A\	-ri-	4c\	-ri-	4e\	-ri-	4a/	-ri-	4a/	-ri-
=105	=105	=105	=105	=105	=105	=105	=105	=105	=105
1E	-ter	[1B	-ter	[1e	-ter	2.g/	-ter	2.g/	-ter
.	.	.	.	.	.	8f#/L	.	8f#/L	.
.	.	.	.	.	.	8g/J	.	8g/J	.
=106	=106	=106	=106	=106	=106	=106	=106	=106	=106
1A	Sal-	2B\]	.	1e]	.	1a	.	1a	.
.	.	2c\	Sal-	.	.	.	.	.	.
=107	=107	=107	=107	=107	=107	=107	=107	=107	=107
2G\	-va-	2B\	-va-	2r	.	1r	.	1r	.
2E\	-tor	2G/	-tor	2e\	Sal-	.	.	.	.
=108	=108	=108	=108	=108	=108	=108	=108	=108	=108
1G	no-	2B\	no-	2d\	-va-	1g	Sal-	1g	Sal-
.	.	2E/	-ster	2B\	-tor	.	.	.	.
=109	=109	=109	=109	=109	=109	=109	=109	=109	=109
!!linebreak:original
2D\	-ster	2A/	dis-	2d\	no-	2f#/	-va-	2f#/	-va-
2D\	dis-	[2F#/	-ru-	[2A/	-ster	2d/	-tor	2d/	-tor
=110	=110	=110	=110	=110	=110	=110	=110	=110	=110
1D	-ru-	4F#/]	.	2A/]	.	1f#	no-	1f#	no-
.	.	4G/	.	.	.	.	.	.	.
.	.	[2A/	.	2d\	dis-	.	.	.	.
=111	=111	=111	=111	=111	=111	=111	=111	=111	=111
2AA/	.	2A/]	.	2.c\	.	2e/	-ster	2e/	-ster
2AA/	-pit	2E/	-pit	.	.	2a/	dis-	2a/	dis-
.	.	.	.	4d\	.	.	.	.	.
=112	=112	=112	=112	=112	=112	=112	=112	=112	=112
2.C/	dis-	2E/	dis-	2.e\	.	2.g/	-ru-	2.g/	-ru-
.	.	[2G/	-ru-	.	.	.	.	.	.
4D\	.	.	.	8d\L	.	4f#/	.	4f#/	.
.	.	.	.	8c\J	.	.	.	.	.
=113	=113	=113	=113	=113	=113	=113	=113	=113	=113
[1E	-ru-	4G/]	.	[1B	-ru-	4g/	.	4g/	.
.	.	4A/	.	.	.	4f#/	.	4f#/	.
.	.	4B\	.	.	.	4e/	.	4e/	.
.	.	4A/	.	.	.	4d/	.	4d/	.
=114	=114	=114	=114	=114	=114	=114	=114	=114	=114
1E]	.	4G/	.	1B]	.	1e	.	1e	.
.	.	4F#/	.	.	.	.	.	.	.
.	.	2G/	.	.	.	.	.	.	.
=115	=115	=115	=115	=115	=115	=115	=115	=115	=115
[1BB	-pit.	[1F#	-pit.	[1B	-pit.	[1d#i	-pit.	[1d#i	-pit.
=116	=116	=116	=116	=116	=116	=116	=116	=116	=116
1BB]	.	1F#]	.	1B]	.	1d#]	.	1d#]	.
==	==	==	==	==	==	==	==	==	==
*-	*-	*-	*-	*-	*-	*-	*-	*-	*-
!!!OTL: Recessit pastor 
!!!COM: Ingegneri, Marc' Antonio
!!!CDT: ca. 1535/36-1592-07-01
!!!TXO: Latin
!!!ODT: 
!!!ARL: Klasztor OO. Paulinów na Jasnej Górze
!!!voices:	5
!!title: @{OTL}, @{GTL}, ed. @{ENC}
!!!pag:
!!!GTL: Responsoria in Hebdomada majore
!!!EFL: 
!!!YEM: Creative Commons CC/BY/NC/SA 4.0
!!!ENC: Marcin Konik
!!!END: 2015-0m-dd
!!!EED: Marcin Konik
!!!EEV: 
!!!ONB: Encoded in vim by Marcin Konik
!!!CharacterEncoding: utf-8
!!!RDF**kern: l=long note in original notation
!!!RDF**kern: i=editorial accidental
!!muse2ps: z14jc180F
